icons/line/collection.svg

<svg width="24" height="24" viewBox="0 0 24 24" fill="none" xmlns="http://www.w3.org/2000/svg">
<path d="M5 14V14C3.89543 14 3 13.1046 3 12V6C3 4.89543 3.89543 4 5 4H19C20.1046 4 21 4.89543 21 6V12C21 13.1046 20.1046 14 19 14V14M5 14V15C5 16.1046 5.89543 17 7 17V17M5 14H19M19 14V15C19 16.1046 18.1046 17 17 17V17M17 17V18C17 19.1046 16.1046 20 15 20H9C7.89543 20 7 19.1046 7 18V17M17 17H7" stroke="currentColor" stroke-width="2" stroke-linecap="round" stroke-linejoin="round"/>
</svg>

<svg fill="none" xmlns="http://www.w3.org/2000/svg" viewBox="0 0 24 24"><path d="M5 14v0a2 2 0 01-2-2V6a2 2 0 012-2h14a2 2 0 012 2v6a2 2 0 01-2 2v0M5 14v1a2 2 0 002 2v0m-2-3h14m0 0v1a2 2 0 01-2 2v0m0 0v1a2 2 0 01-2 2H9a2 2 0 01-2-2v-1m10 0H7" stroke="currentColor" stroke-width="2" stroke-linecap="round" stroke-linejoin="round"/></svg>
